src/resources/icons-ec/src/all/calendar.svg

<?xml version="1.0" encoding="UTF-8" ?>
<svg xmlns="http://www.w3.org/2000/svg" viewBox="0 0 48 48"><defs><style
    >.cls-1{fill:none;}.cls-2{fill-rule:evenodd;}</style></defs><g
    id="Layer_1"
  ><path
      class="cls-2"
      d="M10,8V2h6v6c0,1.65-1.16,3-3,3s-3-1.23-3-3Zm22,0V2h6v6c0,1.81-1.34,3-3,3s-3-1.19-3-3Zm10,34h-6v-6h6v6Zm0-8h-6v-6h6v6Zm0-8h-6v-6h6v6Zm-10,16h-6v-6h6v6Zm0-8h-6v-6h6v6Zm0-8h-6v-6h6v6Zm-10,16h-6v-6h6v6Zm0-8h-6v-6h6v6Zm0-8h-6v-6h6v6Zm-10,16H6v-6h6v6Zm0-8H6v-6h6v6Zm0-8H6v-6h6v6Zm32-8H4v26H44V18ZM2,46V6h6v2c0,2.51,2.2,5,5,5s5-2.49,5-5v-2h12v2c0,2.51,2.2,5,5,5s5-2.49,5-5v-2h6V46H2Z"
    /></g></svg>

<?xml version="1.0" encoding="UTF-8"?>
<svg width="48px" height="48px" viewBox="0 0 48 48" version="1.1" xmlns="http://www.w3.org/2000/svg" xmlns:xlink="http://www.w3.org/1999/xlink">
    <title>EC/Icons/General/2XL_48x48px/Icon-Calendar</title>
    <defs>
        <path d="M10,8 L10,2 L16,2 L16,8 C16,9.64924137 14.8395385,11 13,11 C11.1587692,11 10,9.76524137 10,8 Z M32,8 L32,2 L38,2 L38,8 C38,9.81166666 36.6576941,11 35,11 C33.3423057,11 32,9.81166666 32,8 Z M42,42 L36,42 L36,36 L42,36 L42,42 Z M42,34 L36,34 L36,28 L42,28 L42,34 Z M42,26 L36,26 L36,20 L42,20 L42,26 Z M32,42 L26,42 L26,36 L32,36 L32,42 Z M32,34 L26,34 L26,28 L32,28 L32,34 Z M32,26 L26,26 L26,20 L32,20 L32,26 Z M22,42 L16,42 L16,36 L22,36 L22,42 Z M22,34 L16,34 L16,28 L22,28 L22,34 Z M22,26 L16,26 L16,20 L22,20 L22,26 Z M12,42 L6,42 L6,36 L12,36 L12,42 Z M12,34 L6,34 L6,28 L12,28 L12,34 Z M12,26 L6,26 L6,20 L12,20 L12,26 Z M44,18 L4,18 L4,44 L44,44 L44,18 Z M2,46 L2,6 L8,6 L8,8 C8,10.514069 10.1958462,13 13,13 C15.8041539,13 18,10.514069 18,8 L18,6 L30,6 L30,8 C30,10.514069 32.1975386,13 35,13 C37.8024616,13 40,10.514069 40,8 L40,6 L46,6 L46,46 L2,46 Z" id="path-1"></path>
    </defs>
    <g id="EC/Icons/General/2XL_48x48px/Icon-Calendar" stroke="none" stroke-width="1">
        <mask id="mask-2" >
            <use xlink:href="#path-1"></use>
        </mask>
        <use id="Calendar" xlink:href="#path-1"></use>
    </g>
</svg>
